brandFactory_export/1.Light/Libra_1Light.svg

<?xml version="1.0" encoding="UTF-8"?>
<svg width="24px" height="24px" viewBox="0 0 24 24" version="1.1" xmlns="http://www.w3.org/2000/svg" xmlns:xlink="http://www.w3.org/1999/xlink">
    <title>1.Light/Libra_1Light</title>
    <g id="Symbols" stroke="none" stroke-width="1" fill="none" fill-rule="evenodd">
        <g id="1.Light/Libra_1Light" fill="#5CB615" fill-rule="nonzero">
            <path d="M11.8084034,22.6386555 C18.994958,22.6386555 22.6352941,18.9983193 22.6352941,11.8151261 C22.6352941,4.62857143 18.9915966,0.988235294 11.8084034,0.988235294 C4.62521008,0.988235294 0.98487395,4.62857143 0.98487395,11.8151261 C0.98487395,18.994958 4.62857143,22.6386555 11.8084034,22.6386555 Z M11.8084034,0 C19.5394958,0 23.6235294,4.08739496 23.6235294,11.8151261 C23.6235294,19.5394958 19.5394958,23.6235294 11.8084034,23.6235294 C4.08403361,23.6235294 0,19.5394958 0,11.8151261 C0,4.08739496 4.08403361,0 11.8084034,0 Z M15.307563,17.7378151 C15.4420168,17.7378151 15.5529412,17.8487395 15.5529412,17.9831933 L15.5529412,18.5109244 C15.5529412,18.6453782 15.4420168,18.7563025 15.307563,18.7563025 L7.7512605,18.7563025 C7.65714286,18.7563025 7.57310924,18.7058824 7.52941176,18.6218487 C7.46890756,18.4941176 7.44201681,18.3563025 7.44537815,18.2184874 C7.44537815,17.7781513 7.67394958,17.5563025 8.22184874,17.0252101 C9.34789916,15.9394958 9.57310924,15.1294118 9.57310924,14.1781513 C9.57310924,13.5092437 9.45882353,12.8504202 9.21008403,12.0605042 L7.80840336,12.0605042 C7.67394958,12.0605042 7.56302521,11.9495798 7.56302521,11.8151261 L7.56302521,11.4823529 C7.56302521,11.3512605 7.6605042,11.2470588 7.79159664,11.2369748 L8.91428571,11.1596639 C8.68571429,10.4739496 8.4605042,9.54621849 8.4605042,8.57142857 C8.4605042,6.04705882 9.91260504,4.65546218 12.5512605,4.65546218 C13.2336134,4.65546218 14.3394958,4.74957983 15.2033613,5.01848739 C15.3042017,5.05210084 15.3747899,5.14621849 15.3747899,5.25378151 L15.3747899,5.70420168 C15.3747899,5.77815126 15.3411765,5.84537815 15.287395,5.89243697 C15.2302521,5.9394958 15.1563025,5.95630252 15.0823529,5.94621849 C14.2319328,5.78487395 13.4016807,5.69747899 12.7462185,5.69747899 C10.6016807,5.69747899 9.55630252,6.63193277 9.55630252,8.55462185 C9.55630252,9.43865546 9.78151261,10.3193277 10.0201681,11.0789916 L13.2336134,11.0789916 C13.3680672,11.0789916 13.4789916,11.189916 13.4789916,11.3243697 L13.4789916,11.8151261 C13.4789916,11.9495798 13.3680672,12.0605042 13.2336134,12.0605042 L10.3294118,12.0605042 C10.5445378,12.789916 10.6487395,13.5058824 10.6487395,14.194958 C10.6487395,15.5831933 10.205042,16.5310924 8.93445378,17.7344538 L15.307563,17.7344538 L15.307563,17.7378151 Z" id="Libra_1Light"></path>
        </g>
    </g>
</svg>

<svg width="24" height="24" viewBox="0 0 24 24" xmlns="http://www.w3.org/2000/svg"><path d="M11.808 22.639c7.187 0 10.827-3.64 10.827-10.824C22.635 4.63 18.992.988 11.808.988 4.625.988.985 4.628.985 11.815c0 7.18 3.644 10.824 10.823 10.824zm0-22.639c7.731 0 11.816 4.087 11.816 11.815 0 7.724-4.085 11.809-11.816 11.809C4.084 23.624 0 19.539 0 11.815 0 4.087 4.084 0 11.808 0zm3.5 17.738c.134 0 .245.11.245.245v.528c0 .134-.111.245-.245.245H7.75a.247.247 0 01-.222-.134.888.888 0 01-.084-.404c0-.44.229-.662.777-1.193 1.126-1.086 1.351-1.896 1.351-2.847 0-.669-.114-1.328-.363-2.117H7.808a.247.247 0 01-.245-.246v-.333c0-.13.098-.235.229-.245l1.122-.077c-.228-.686-.453-1.614-.453-2.589 0-2.524 1.452-3.916 4.09-3.916.683 0 1.788.095 2.652.363a.25.25 0 01.172.236v.45a.25.25 0 01-.088.188.263.263 0 01-.205.054c-.85-.161-1.68-.249-2.336-.249-2.144 0-3.19.935-3.19 2.858 0 .884.226 1.764.464 2.524h3.214c.134 0 .245.11.245.245v.491c0 .135-.11.246-.245.246h-2.905c.216.729.32 1.445.32 2.134 0 1.388-.444 2.336-1.715 3.54h6.374v.003z" fill="#5CB615" fill-rule="nonzero"/></svg>
